public/images/tickets/pink-paw-left-desktop.svg

<svg  viewBox="0 0 91 113" fill="none" xmlns="http://www.w3.org/2000/svg">
<path d="M70.6058 66.5439L66.907 66.4835C65.287 66.457 63.7442 65.7868 62.6193 64.6209C61.9401 63.917 61.1015 63.3868 60.1743 63.0752L59.7535 62.9338C57.8501 62.294 55.7748 62.4017 53.9479 63.235L53.2287 63.563C52.2117 64.0269 51.2804 64.6594 50.4742 65.4338L46.2562 69.4857C45.9952 69.7364 45.7102 69.9609 45.4053 70.1559C44.4023 70.7974 43.2189 71.0978 42.0313 71.0125L39.1668 70.8067C37.0624 70.6555 34.9508 70.9757 32.9858 71.744L31.5183 72.3178C29.4905 73.1106 27.6493 74.3159 26.1113 75.8571C24.2552 77.7172 22.8946 80.0127 22.1538 82.5338L22.0366 82.9327C21.2972 85.449 19.9975 87.765 18.2349 89.7071L16.8568 91.2256C15.5361 92.6808 14.6168 94.4547 14.1894 96.3728C13.8186 98.0369 13.8283 99.7633 14.2179 101.423L16.5166 111.216C17.1335 113.844 18.0293 116.399 19.1888 118.837L21.6453 124.002C22.4734 125.743 23.7018 127.291 25.203 128.5C28.5804 131.222 33.1588 132.067 37.2687 130.68C39.0393 130.083 40.6562 129.102 42.0038 127.807L45.7858 124.174L48.2212 122.208C50.3026 120.529 52.6812 119.255 55.233 118.454C58.3626 117.471 61.6764 117.223 64.9174 117.729L67.3876 118.114C68.7247 118.323 70.0784 118.407 71.431 118.364L72.4521 118.333C76.46 118.208 80.3221 116.8 83.4699 114.316L83.5392 114.261C84.4286 113.559 85.2489 112.774 85.989 111.916C88.7584 108.706 90.2915 104.614 90.3125 100.374L90.3284 97.1464C90.3394 94.9267 90.0719 92.7145 89.5324 90.5614L87.314 81.7091L86.0155 77.8256C84.8534 74.3501 82.5565 71.3662 79.4941 69.3535C78.322 68.5833 77.0557 67.9671 75.7262 67.5203L75.1419 67.3239C73.6789 66.8322 72.1489 66.5691 70.6058 66.5439Z" fill="#FFACD4"/>
<path d="M16.9191 80.2212L16.9364 82.4212C16.9561 84.9425 15.679 87.2972 13.5549 88.6557C12.7227 89.188 11.7915 89.5466 10.8172 89.71L8.18516 90.1515C7.00719 90.3491 5.79895 90.0706 4.82633 89.3773C3.61284 88.5123 2.90591 87.1029 2.93815 85.613L2.97617 83.8564C2.99837 82.8305 2.81858 81.8103 2.44704 80.8538L1.55434 78.5557L0.724369 75.2437C0.470071 74.229 0.317023 73.1915 0.26746 72.1466C0.119488 69.0266 0.898031 65.9327 2.50503 63.2544L2.77321 62.8075C3.70023 61.6652 5.28723 61.3033 6.61784 61.9306L9.27709 63.1845C10.4602 63.7424 11.4618 64.6229 12.1666 65.7249L13.4549 67.7392C14.4173 69.2439 15.1077 70.9061 15.4947 72.6498L16.6507 77.8585C16.823 78.6344 16.9129 79.4264 16.9191 80.2212Z" fill="#FFACD4"/>
<path d="M0.150271 52.8743L0.911144 56.9061C1.12597 58.0445 2.29758 58.7301 3.39521 58.3597C4.02734 58.1465 4.50211 57.6184 4.64721 56.9673L5.19897 54.4912C5.32308 53.9342 5.37226 53.3632 5.34523 52.7933L5.08451 47.296L4.98305 43.4037C4.97741 43.1872 4.69586 43.1076 4.5777 43.289L0.942882 48.8696C0.172431 50.0525 -0.111517 51.4872 0.150271 52.8743Z" fill="#FFACD4"/>
<path d="M21.1131 41.1651L18.4831 39.6034C17.1667 38.8218 15.4905 39.015 14.3864 40.0755C13.7184 40.7172 13.3407 41.6034 13.3404 42.5297L13.3376 51.3729L14.1216 58.9525C14.3234 60.9039 14.8706 62.8038 15.7375 64.5636L16.8986 66.9207C17.3464 67.8297 18.0127 68.6134 18.8379 69.2015C20.2404 70.2013 21.9991 70.5644 23.6829 70.2017L24.3773 70.0522C26.4688 69.6017 28.2803 68.3051 29.3811 66.4705L29.4257 66.3962C30.0588 65.341 30.4378 64.1531 30.5328 62.9262L30.6923 60.8644C30.8932 58.2691 30.4848 55.6628 29.4996 53.2535L28.8834 51.7465C28.0731 49.7647 26.9965 47.9026 25.6835 46.2115L23.1865 42.9954C22.6161 42.2608 21.9128 41.6399 21.1131 41.1651Z" fill="#FFACD4"/>
<path d="M11.2319 30.782L13.8532 33.6812C14.6446 34.5564 15.9524 34.7319 16.9464 34.0961C17.893 33.4907 18.2971 32.3125 17.9214 31.2535L15.8473 25.4078C15.3202 23.9224 15.1438 22.3353 15.3317 20.7704L16.1619 13.858C16.2133 13.4304 15.6447 13.2357 15.4232 13.605L10.6945 21.4859C10.2402 22.2432 9.91064 23.0686 9.71857 23.9306L9.58392 24.5348C9.08779 26.7612 9.70211 29.09 11.2319 30.782Z" fill="#FFACD4"/>
<path d="M45.9645 42.3898L44.9419 39.8888C44.2699 38.2455 43.4506 36.6663 42.494 35.1706C40.636 32.2656 38.2644 29.6964 35.5217 27.6064C33.9433 26.4036 31.6385 27.0506 30.9375 28.9071L30.345 30.4762C28.9027 34.296 28.3705 38.3994 28.7905 42.4608C28.9693 44.1892 29.3191 45.8956 29.8348 47.5549L31.7272 53.6445L32.8859 57.1099C33.4651 58.8421 34.6942 60.2818 36.3142 61.1255C38.2776 62.148 40.6075 62.1886 42.6053 61.2349L42.6744 61.2019C44.2985 60.4267 45.5734 59.0713 46.248 57.4029L46.8133 56.0048C47.4303 54.479 47.6996 52.8349 47.6018 51.1919L47.4721 49.0128C47.3366 46.7373 46.8272 44.4997 45.9645 42.3898Z" fill="#FFACD4"/>
<path d="M54.0993 26.47L52.5594 26.1362C51.9729 26.009 51.3598 26.1191 50.8542 26.4425C50.4973 26.6708 50.2113 26.9944 50.0286 27.3767L48.6876 30.1831C47.6423 32.3707 47.2212 34.8044 47.4706 37.216L47.7414 39.8338C47.9111 41.4751 48.2608 43.0928 48.7841 44.6577L50.5045 49.8029C50.8928 50.9644 51.423 52.0736 52.0829 53.1054L53.9933 56.0924C54.5873 57.0211 55.4808 57.7188 56.5257 58.07C58.4378 58.7127 60.5481 58.1004 61.8193 56.534L62.1693 56.1027C62.6273 55.5384 62.9717 54.8908 63.1837 54.1957L64.4811 49.9414C64.8191 48.8329 65.0524 47.6951 65.1779 46.543L65.2545 45.84C65.4414 44.1248 65.3224 42.3901 64.903 40.7166C64.52 39.1883 63.8919 37.7321 63.0429 36.4048L61.7768 34.4253L59.7602 31.2722C59.4066 30.7194 59.0078 30.197 58.5677 29.7103L57.3268 28.3377C56.4727 27.3931 55.3439 26.7399 54.0993 26.47Z" fill="#FFACD4"/>
<path d="M80.3021 42.4197L78.3691 41.0832C75.5296 39.1199 71.622 39.9639 69.8458 42.9241C69.0298 44.2842 68.7918 45.9288 69.1774 47.4674L71.8452 56.0521L74.2494 61.9319C74.8466 63.3925 75.9901 64.5625 77.4365 65.1931L78.5379 65.6732C79.7015 66.1805 81.0414 66.0745 82.1108 65.3906C83.1339 64.7362 83.7834 63.6331 83.8593 62.421L84.2937 55.4812C84.3708 54.2501 84.3175 53.0142 84.1348 51.7943L83.4993 47.5505C83.3408 46.4924 82.9609 45.4796 82.3845 44.5782C81.8405 43.7277 81.1326 42.9939 80.3021 42.4197Z" fill="#FFACD4"/>
<path d="M65.8331 21.5797L61.6276 20.6679C61.3024 20.5974 61.1037 21.0132 61.3628 21.222L65.0272 24.175C65.7707 24.7741 66.4121 25.4898 66.9266 26.2942C67.5355 27.2462 67.9561 28.3061 68.1656 29.4165L68.4969 31.1718C68.5888 31.659 68.7734 32.124 69.0405 32.5416L69.3468 33.0206C69.952 33.9668 71.041 34.4888 72.1577 34.3681C73.208 34.2546 74.1182 33.5896 74.5455 32.6235C74.8438 31.9492 74.8795 31.1879 74.6457 30.4887L74.2279 29.2392C74.0621 28.7434 73.8358 28.2698 73.554 27.8294L72.54 26.2438C71.807 25.0978 70.8611 24.1031 69.7534 23.3135C68.5778 22.4755 67.244 21.8856 65.8331 21.5797Z" fill="#FFACD4"/>
<path d="M45.2227 6.7872L39.5805 4.59717C39.3095 4.49197 39.0618 4.79447 39.2185 5.03939L39.9966 6.25605L42.1949 8.97277C43.6902 10.8207 44.6164 13.0633 44.861 15.4278C44.9737 16.5173 45.2318 17.5868 45.6284 18.6079L46.4863 20.8163L47.164 22.561C47.6229 23.7422 48.8173 24.4685 50.0771 24.3323C50.9495 24.238 51.7274 23.7405 52.1788 22.9881L52.6111 22.2676C53.0505 21.5353 53.2721 20.6929 53.2498 19.8392L53.2114 18.3666C53.1801 17.1633 52.9216 15.9767 52.4496 14.8694L51.6603 13.0178C51.4098 12.43 51.1108 11.864 50.7665 11.3257C49.4471 9.2628 47.5055 7.67327 45.2227 6.7872Z" fill="#FFACD4"/>
<path d="M28.1615 5.40565L26.0735 1.01555C25.8903 0.630231 25.3166 0.727356 25.2704 1.15153C25.0134 3.50973 24.9552 5.88535 25.0962 8.25332L25.3673 12.8061L26.2753 18.869C26.4304 19.9049 26.9997 20.8333 27.8526 21.4413L28.0882 21.6093C29.2293 22.4227 30.7502 22.4609 31.9306 21.7059C32.8064 21.1458 33.3811 20.2191 33.4937 19.1857L33.67 17.5676C33.7969 16.4034 33.6223 15.2261 33.1631 14.1488L32.4374 12.4462C32.1352 11.7374 31.7747 11.0549 31.3595 10.4058L28.1615 5.40565Z" fill="#FFACD4"/>
</svg>

<svg xmlns="http://www.w3.org/2000/svg" fill="none" viewBox="0 0 91 113"><path fill="#FFACD4" d="m70.606 66.544-3.699-.06a6.1 6.1 0 0 1-4.288-1.863 6.1 6.1 0 0 0-2.445-1.546l-.42-.141a7.91 7.91 0 0 0-5.806.301l-.72.328a9.9 9.9 0 0 0-2.754 1.87l-4.218 4.053a5.53 5.53 0 0 1-4.225 1.526l-2.864-.205a14.2 14.2 0 0 0-6.181.937l-1.468.574a15.73 15.73 0 0 0-9.364 10.216l-.117.399a17.4 17.4 0 0 1-3.802 6.774l-1.378 1.519a11.32 11.32 0 0 0-2.64 10.197l2.3 9.793a38 38 0 0 0 2.672 7.621l2.456 5.165a12.9 12.9 0 0 0 3.558 4.498c3.377 2.722 7.956 3.567 12.066 2.18a12.7 12.7 0 0 0 4.735-2.873l3.782-3.633 2.435-1.966a21.36 21.36 0 0 1 16.696-4.479l2.47.385c1.338.209 2.691.293 4.044.25l1.021-.031a18.73 18.73 0 0 0 11.018-4.017l.07-.055a17.803 17.803 0 0 0 6.773-13.887l.015-3.228a26.6 26.6 0 0 0-.796-6.585l-2.218-8.852-1.298-3.883a16.34 16.34 0 0 0-10.29-10.306l-.584-.196a15 15 0 0 0-4.536-.78M16.92 80.221l.016 2.2a7.33 7.33 0 0 1-6.119 7.289l-2.632.442a4.503 4.503 0 0 1-5.247-4.539l.038-1.757a7.8 7.8 0 0 0-.529-3.002l-.893-2.298-.83-3.312a15.83 15.83 0 0 1 1.781-11.99l.268-.447a3.196 3.196 0 0 1 3.845-.876l2.66 1.254a6.95 6.95 0 0 1 2.889 2.54l1.288 2.014a15.2 15.2 0 0 1 2.04 4.91l1.156 5.21c.172.775.262 1.567.268 2.362M.15 52.874l.761 4.032a1.907 1.907 0 0 0 3.736.061l.552-2.476a6.4 6.4 0 0 0 .146-1.698l-.26-5.497-.102-3.892a.22.22 0 0 0-.405-.115l-3.635 5.58a5.48 5.48 0 0 0-.793 4.005M21.113 41.165l-2.63-1.562a3.405 3.405 0 0 0-5.143 2.927l-.002 8.843.784 7.58a16.6 16.6 0 0 0 1.616 5.61l1.16 2.358a6.124 6.124 0 0 0 6.785 3.28l.694-.149a7.74 7.74 0 0 0 5.004-3.582l.045-.074a7.9 7.9 0 0 0 1.107-3.47l.16-2.062c.2-2.595-.208-5.201-1.193-7.61l-.617-1.508a23.6 23.6 0 0 0-3.2-5.535l-2.497-3.216a7.4 7.4 0 0 0-2.073-1.83M11.232 30.782l2.621 2.9a2.415 2.415 0 0 0 4.068-2.429l-2.074-5.845a10.2 10.2 0 0 1-.515-4.638l.83-6.912c.051-.428-.517-.622-.739-.253l-4.728 7.88a8.2 8.2 0 0 0-.976 2.446l-.135.604a7.03 7.03 0 0 0 1.648 6.247M45.965 42.39l-1.023-2.501a29.44 29.44 0 0 0-9.42-12.283c-1.579-1.202-3.883-.555-4.584 1.301l-.593 1.57a26.28 26.28 0 0 0-.51 17.078l1.892 6.09 1.159 3.465a7.047 7.047 0 0 0 9.72 4.125l.068-.033a7.2 7.2 0 0 0 3.574-3.8l.565-1.397c.617-1.526.887-3.17.789-4.813l-.13-2.18a20.8 20.8 0 0 0-1.508-6.622M54.1 26.47l-1.54-.334a2.27 2.27 0 0 0-2.531 1.24l-1.341 2.807a13.17 13.17 0 0 0-1.217 7.033l.27 2.618c.17 1.641.52 3.259 1.043 4.824l1.72 5.145c.389 1.161.919 2.27 1.579 3.302l1.91 2.987a4.834 4.834 0 0 0 7.826.442l.35-.431a5.6 5.6 0 0 0 1.015-1.907l1.297-4.255c.338-1.108.571-2.246.697-3.398l.076-.703a14.58 14.58 0 0 0-2.211-9.435l-1.266-1.98-2.017-3.153a12 12 0 0 0-1.192-1.562l-1.241-1.372a6.1 6.1 0 0 0-3.228-1.868M80.302 42.42l-1.933-1.337a5.976 5.976 0 0 0-8.523 1.841 6.01 6.01 0 0 0-.669 4.543l2.668 8.585 2.404 5.88a6.06 6.06 0 0 0 3.188 3.261l1.1.48a3.807 3.807 0 0 0 5.322-3.252l.435-6.94a17.5 17.5 0 0 0-.16-3.687l-.635-4.243a7.6 7.6 0 0 0-3.197-5.131M65.833 21.58l-4.205-.912c-.326-.07-.524.345-.265.554l3.664 2.953a8.84 8.84 0 0 1 3.139 5.241l.33 1.756c.093.487.277.952.544 1.37l.307.479a2.96 2.96 0 0 0 5.299-2.532l-.418-1.25a6.4 6.4 0 0 0-.674-1.41l-1.014-1.585a10.64 10.64 0 0 0-6.707-4.664M45.223 6.787l-5.642-2.19a.3.3 0 0 0-.363.442l.779 1.217 2.198 2.717a12.27 12.27 0 0 1 2.666 6.455c.113 1.09.37 2.159.767 3.18l.858 2.208.678 1.745a2.802 2.802 0 0 0 5.015.427l.432-.72c.44-.733.661-1.575.639-2.429l-.039-1.472a9.6 9.6 0 0 0-.761-3.498l-.79-1.851a11.53 11.53 0 0 0-6.437-6.23M28.162 5.406l-2.088-4.39c-.184-.386-.757-.289-.804.136a42.3 42.3 0 0 0-.174 7.101l.271 4.553.908 6.063a3.86 3.86 0 0 0 1.578 2.572l.235.168a3.433 3.433 0 0 0 5.406-2.423l.176-1.618a6.83 6.83 0 0 0-.507-3.42l-.726-1.702a14 14 0 0 0-1.077-2.04z"/></svg>
